X:1
T:Gitene canzonette
T:Gitene canzonette
T:Giovanni Maria Artusi
T:Source : Canzonette a 4 voci---Libro primo---Venetia---G.Vincenti---1598. Editor : André Vierendeels (16/02/14)
T:Notes : Original clefs : G2, G2, C2, C3 m8 in C2, second "do" noted as quarter in original print
C:Giovanni Mario Artusi
%%score [ 1 2 3 4 ]
L:1/8
Q:1/4=90
M:4/4
K:F
V:1 treble nm="Canto 1" snm="C 1"
V:2 treble nm="Canto 2" snm="C 2"
V:3 treble nm="Alto" snm="A"
V:4 treble-8 nm="Tenor" snm="T"
V:1
 z8 | z8 | d6 cB | A2 B2 A4 | G2 g4 fe |"^b" f3 e d2 d2 | z2 d2 f3 f | f2 f2 _e4 | d8 | %9
w: ||Gi te- ne|can- zo- net-|te, gi- te- ne|can- zo- net- te|al mio gen-|til si- gno-|re,|
 d2 GA B2 c2 | d4 d4 | A2 BA G2 G2 | d4 d4 | B2 GA B2 c2 | d4 A4 | z2 =B2 c3 c | c2 d2 c4 | A4 A4 | %18
w: gi- te- ne can- zo-|net- te,|gi- te- ne can- zo-|net- te|gi- te- ne can- zo-|net- te|al mio gen-|til si- gno-|re, con|
 B8 | A4 z4 | z8 | z8 | z2 d2 c4 | c4 z2 d2 | d2 d2 d4- | d2 d2 c4- | c2 B2 A4 | =B4 A4 | B8 | %29
w: dir-|gli|||vi- do-|na, chi|sol di voi|_ ra- gio-||na, con|dir-|
 A4 z4 | d4 c4 | c2 B4 A2 | A2 f2 f2 e2 | f4 z2 f2 | f2 f2 f4- | f4 _e4 | d8 | d8 |] %38
w: gli|il cor|in att' hu-|mil vi- do- *|na, chi|sol di voi|_ ra-|gio-|na.|
V:2
 d2 GA B2 c2 | d4 d4 | A2 BA G2 G2 | d4 d4 | B2 GA B2 c2 | d4 A4 | z2 =B2 c3 c | c2 d2 c4 | A8 | %9
w: Gi- te- ne can- zo-|net- te,|gi- te- ne can- zo-|net- te,|gi- te- ne can- zo-|net- te|al mio gen-|til si- gno-|re,|
 z8 | z8 | d6 cB | A2 B2 A4 |"^b" G2 g4 fe |"^b" f3 e d2 d2 | z2 d2 f3 f | f2 f2 _e4 | d4 d4 | d8 | %19
w: ||gi- te- ne|can- zo- net-|te, gi- te- ne|can- zo- net- te|al mio gen-|til si- gno-|re, con|dir-|
 d8 | d4 c4 | c2 B4 A2 | A2 f2 f2 e2 | f4 z2 f2 | f2 f2 f4- | f4 _e4 | d8 | d4 d4 | d8 | d8 | z8 | %31
w: gli|il cor,|In att' hu-|mil vi- do- na|_ chi|sol di voi|_ ra-|gio-|na, con|dir-|gli||
 z8 | z2 d2 c4 | c4 z2 d2 | d2 d2 d4- | d2 d2 c4- | c2 B2 A4 | =B8 |] %38
w: |vi- do-|na, chi|sol di voi|_ ra- gio-||na.|
V:3
 z4 G4- | G2 FE D2 G2 | ^F2 G2 D2 EE | ^FF G4 F2 | G2 BA G3 A | B2 AG ^F2 F2 | z2 G2 A3 A | %7
w: Gi-|* te- ne can- zo-|net- te, gi- te- ne|can- zo net- te,|gi- te- ne can- zo-|net- * * * te|al mio gen-|
 A2 B2 G4 | ^F8 | z4 G4- | G2 FE D2 G2 | ^F2 G2 D2 EE | ^FF G4 F2 | G2 BA G3 A | B2 AG ^F2 F2 | %15
w: til si- gno-|re,|Gi-|* te- ne can- zo-|net- te, gi- ti- ne|can- zo- net- te,|gi- te- ne can- zo-|net- * * * te|
 z2 G2 A3 A | A2 B2 G4 | ^F4 F4 | G8 | F4 B4 | A4 A2 G2- | G2 G2 F4- | F2 B2 G4 | A4 z2 B2 | %24
w: al mio gen-|til si- gno-|re, con|dir-|gli il|cor, In att'|_ hu- mil|_ vi- do-|na, chi|
 B2 B2 B4- | B4 G4 | ^F2 G4 F2 | G4 ^F4 | G8 | F4 B4 | A4 A2 G2- | G2 G2 F4- | F2 B2 G4 | %33
w: sol di voi|_ ra-|gio- * *|na, con|dir-|gli- il|cor in att'|_ hu- mil|_ vi- do-|
 A4 z2 B2 | B2 B2 B4- | B4 G4 | ^F2 G4 F2 | G8 |] %38
w: na, chi|sol di voi|_ ra-|gio- * *|na.|
V:4
 z8 |"^b" z8 | d2 GA B2 c2 | d4 d4 | _e6 dc | B2 c2 d2 d2 | z2 g2 f3 f | f2 B2 c4 | d8 | z8 | z8 | %11
w: ||Gi- te- ne can- zo-|net- te,|gi- te- ne|cab- zo- net- te|al mio gen-|til si- gno-|re.|||
 d2 GA B2 c2 | d4 d4 | _e6 dc | B2 c2 d2 d2 | z2 g2 f3 f | f2 B2 c4 | d4 d4 | G8 | d4 g4 | %20
w: Gi- te- ne can- zo-|net- te,|gi- te- ne|can- zo- net- te|al mio gen-|til si- gno-|re, con|dir-|gli il|
 f4 f2 _e2- | e2 _e2 d4- | d2 B2 c4 | F4 z2 B2 | B2 B2 B4- | B4 c4 | d8 | G4 d4 | G8 | d4 g4 | %30
w: cor, In att'|_ hu- mil|_ vi- do-|na, chi|sol di voi|_ ra-|gio-|na, con|dir-|gli il|
 f4 f2 _e2- | e2 _e2 d4- | d2 B2 c4 | F4 z2 B2 | B2 B2 B4- | B4 c4 | d8 | G8 |] %38
w: cor in att'|_ hu- mil|_ vi- do-|na, chi|sol di voi|_ ra-|gio-|na.|

